mux/assets/mux.svg

<?xml version="1.0" encoding="UTF-8" standalone="no"?><!DOCTYPE svg PUBLIC "-//W3C//DTD SVG 1.1//EN" "http://www.w3.org/Graphics/SVG/1.1/DTD/svg11.dtd"><svg width="100%" height="100%" viewBox="0 0 1600 500" version="1.1" xmlns="http://www.w3.org/2000/svg" xmlns:xlink="http://www.w3.org/1999/xlink" xml:space="preserve" xmlns:serif="http://www.serif.com/" style="fill-rule:evenodd;clip-rule:evenodd;stroke-linejoin:round;stroke-miterlimit:2;"><g id="Layer-1" serif:id="Layer 1"><path d="M994.287,93.486c-17.121,-0 -31,-13.879 -31,-31c0,-17.121 13.879,-31 31,-31c17.121,-0 31,13.879 31,31c0,17.121 -13.879,31 -31,31m0,-93.486c-34.509,-0 -62.484,27.976 -62.484,62.486l0,187.511c0,68.943 -56.09,125.033 -125.032,125.033c-68.942,-0 -125.03,-56.09 -125.03,-125.033l0,-187.511c0,-34.51 -27.976,-62.486 -62.485,-62.486c-34.509,-0 -62.484,27.976 -62.484,62.486l0,187.511c0,137.853 112.149,250.003 249.999,250.003c137.851,-0 250.001,-112.15 250.001,-250.003l0,-187.511c0,-34.51 -27.976,-62.486 -62.485,-62.486" style="fill-rule:nonzero;"/><path d="M1537.51,468.511c-17.121,-0 -31,-13.879 -31,-31c0,-17.121 13.879,-31 31,-31c17.121,-0 31,13.879 31,31c0,17.121 -13.879,31 -31,31m-275.883,-218.509l-143.33,143.329c-24.402,24.402 -24.402,63.966 0,88.368c24.402,24.402 63.967,24.402 88.369,-0l143.33,-143.329l143.328,143.329c24.402,24.4 63.967,24.402 88.369,-0c24.403,-24.402 24.403,-63.966 0.001,-88.368l-143.33,-143.329l0.001,-0.004l143.329,-143.329c24.402,-24.402 24.402,-63.965 0,-88.367c-24.402,-24.402 -63.967,-24.402 -88.369,-0l-143.329,143.328l-143.329,-143.328c-24.402,-24.401 -63.967,-24.402 -88.369,-0c-24.402,24.402 -24.402,63.965 0,88.367l143.329,143.329l0,0.004Z" style="fill-rule:nonzero;"/><path d="M437.511,468.521c-17.121,-0 -31,-13.879 -31,-31c0,-17.121 13.879,-31 31,-31c17.121,-0 31,13.879 31,31c0,17.121 -13.879,31 -31,31m23.915,-463.762c-23.348,-9.672 -50.226,-4.327 -68.096,13.544l-143.331,143.329l-143.33,-143.329c-17.871,-17.871 -44.747,-23.216 -68.096,-13.544c-23.349,9.671 -38.574,32.455 -38.574,57.729l0,375.026c0,34.51 27.977,62.486 62.487,62.486c34.51,-0 62.486,-27.976 62.486,-62.486l0,-224.173l80.843,80.844c24.404,24.402 63.965,24.402 88.369,-0l80.843,-80.844l0,224.173c0,34.51 27.976,62.486 62.486,62.486c34.51,-0 62.486,-27.976 62.486,-62.486l0,-375.026c0,-25.274 -15.224,-48.058 -38.573,-57.729" style="fill-rule:nonzero;"/></g></svg>

<svg id="Layer_1" xmlns="http://www.w3.org/2000/svg" x="0" y="0" viewBox="0 0 1600 500" xml:space="preserve" color="var(--mux-colors-white)"><style>.st0{fill:currentColor}</style><path class="st0" d="M994.29 0c-34.51 0-62.48 27.98-62.48 62.49V250c0 68.94-56.09 125.03-125.03 125.03S681.74 318.94 681.74 250V62.49C681.74 27.98 653.77 0 619.26 0s-62.48 27.98-62.48 62.49V250c0 137.85 112.15 250 250 250s250-112.15 250-250V62.49C1056.77 27.98 1028.8 0 994.29 0zm0 93.49c-17.12 0-31-13.88-31-31s13.88-31 31-31c17.12 0 31 13.88 31 31s-13.88 31-31 31zM1261.63 250 1118.3 393.33c-24.4 24.4-24.4 63.97 0 88.37 24.4 24.4 63.97 24.4 88.37 0L1350 338.37l143.33 143.33c24.4 24.4 63.97 24.4 88.37 0 24.4-24.4 24.4-63.97 0-88.37L1438.37 250l143.33-143.33c24.4-24.4 24.4-63.97 0-88.37s-63.97-24.4-88.37 0L1350 161.63 1206.67 18.3c-24.4-24.4-63.97-24.4-88.37 0s-24.4 63.97 0 88.37L1261.63 250zm275.88 218.51c-17.12 0-31-13.88-31-31s13.88-31 31-31 31 13.88 31 31-13.87 31-31 31zM461.43 4.76C438.08-4.91 411.2.43 393.33 18.3L250 161.63 106.67 18.3C88.8.43 61.92-4.91 38.57 4.76 15.22 14.43 0 37.21 0 62.49v375.03C0 472.02 27.98 500 62.49 500s62.49-27.98 62.49-62.49V213.34l80.84 80.84c24.4 24.4 63.97 24.4 88.37 0l80.84-80.84v224.17c0 34.51 27.98 62.49 62.49 62.49S500 472.02 500 437.51V62.49c0-25.28-15.22-48.06-38.57-57.73zm-23.92 463.76c-17.12 0-31-13.88-31-31 0-17.12 13.88-31 31-31 17.12 0 31 13.88 31 31 0 17.12-13.88 31-31 31z"></path></svg>
